X:1
T:Don't Rain On My Parade
T:Don't Rain On My Parade
C:Jule Styne
Z:All Rights Reserved
L:1/8
M:2/2
K:C
V:1 treble nm="Piano" snm="Pno."
%%MIDI program 0
V:1
|:"C" z G2 E-"C+" E>F"C6"GG- |"C" G c2 G"C+" F>E"C6"C>G, |"C" z G2 E-"C+" E>F"C6"GG- | %3
w: Don't tell _ me not to|_ fly I've simp- ly got to.|If some- * one takes a|
"C7" G c2 G"C6" F>E"C+"C>G, |"C" z G2 E-"Dm" E>F"Em"GG- |"Dm7" G d2 A c>B"G7"A>B |"C""C+""C6" c8- | %7
w: _ spill, It's me and not you.|don't bring _ a- round a|_ cloud to rain on my par-|ade.|
"C7""C6""C+" c8 |"C" z G2 E-"C+" E>F"C6"GG- |"C" G c2 G"C+" F>E"C6"C>G, | %10
w: _|Don't tell _ me not to|_ live, just sit and put- ter.|
"C" z G2 E-"C+" E>F"C6"GG- |"C7" G c2 G"C6" F>E"C+"C>G, |"C" z G2 E-"Dm" E>F"Em"GG- | %13
w: Life's can- * dy and the|_ sun's a ball of but- ter.|Who told _ you you're al-|
"Dm7" G d2 A c>B"G7"A>B |"C""C+""C6" c8- |"C7" c2 d2"C+7" d2 d2 |"F" c3 F- F4 | %17
w: * lowed to rain on my pa-|rade?|_ I'll march my|band out, _|
"Gm7" z2 d2"C13" d2"C+9" d2 |"F" c8- |"Fm" c2 d2 d2 d2 |"C" c3 E- E4 | %21
w: I'll beat my|drum.|_ And if I'm|fanned out, _|
"Gm7" z2 _B2"A7b9" B2"A7" A2 |"Fm7" _A3 D- D3 A | _B>_AB>A B A3 |"G7" G3 D- D3 G | %25
w: Your turn at|bat, sir, _ At|least I did- n't fake it,|Hat, sir, _ I|
"Dm7" A>GA>G A"G7b9" _A3 |"C" z G2 E-"C+" E>F"C6"GG- |"C" G c2 G"C+" F>E"C6"C>G, | %28
w: guess I did- n't make it!|But wheth- * er I'm the|_ rose of sheer per- fec- tion|
"C" z G2 E-"C+" E>F"C6"GG- |"C7" G c2 G"C6" F>E"C+"C>G, |"C" z G2"Dm" E- E>F"Em"GG- | %31
w: or freck _ le on the|_ nose of life's com- plex- ion.|The cin- * der or the|
"Dm7" G d2 A c>B"G7"A>G |"Gm6" A8- |"A7" A8 |"D" d d2 c"Ddim" B2 dc- |"C" c c2 B"Cdim" A2 cB- | %36
w: _ shin- y ap- ple of it's|eye.|_|I got- ta fly once, I|_ got- ta try once, on-|
"G7" B B2 A G2 F2 |"Cmaj7" E3"C6" G- G4 |"D" d d2 c"Ddim" B2 dc- |"C" c c2 B"Am6" A2 cB- | %40
w: * ly can die once,|Right sir? _|Ooh, love is juic- y, juic-|* y, and you see I|
"B7" B B2 A"B+" G2"B7" ^F2 |"Em" E3 =F-"Dm7""G7" F4 |"C" z G2 E-"C+" E>F"C6"GG- | %43
w: _ got- ta have my|bite, sir. _|Get read- * y for me,|
"C" G c2 G"C+" F>E"C6"C>G, |"C" z G2 E-"C+" E>F"C6"GG- |"C7" G c2 G"C6" F>E"C+"C>G, | %46
w: _ love, 'cause I'm a "com- er"|I sim- * ply got- ta|_ march, my hearts a drum- mer.|
"C" z G2 E-"Dm" E>F"Em"GG- |"Dm7" G d2 A c>B"G7"A>B |1"C""C+""C6" c8- ||"C7""C6""C+" c8 :|2 %50
w: Don't bring _ a- round a|_ cloud to rain on my pa-|rade.|_|
"C""C+""C6" c8 ||"C" c6 z2 |] %52
w: rade.|_|

